w3.3/images/arrow-down.svg

<svg fill="none" height="30" viewBox="0 0 30 30" width="30" xmlns="http://www.w3.org/2000/svg"><path d="m29.143 14.3022-13.5369 13.401v-27.7032h-1.2122v27.7032l-13.536878-13.401-.857022.8487 14.143 14.0007.857.8484.857-.8484 14.143-14.0007z" fill="#fff"/></svg>

<svg width="30" height="30" viewBox="0 0 30 30" fill="none" xmlns="http://www.w3.org/2000/svg">
<path d="M29.143 14.3022L15.6061 27.7032V0H14.3939V27.7032L0.857022 14.3022L0 15.1509L14.143 29.1516L15 30L15.857 29.1516L30 15.1509L29.143 14.3022Z" fill="white"/>
</svg>
